Sweet-Rainbow/icons/azuredatastudio.svg

<?xml version="1.0" encoding="UTF-8" standalone="no"?>
<!-- Generator: Gravit.io -->

<svg
   xmlns:dc="http://purl.org/dc/elements/1.1/"
   xmlns:cc="http://creativecommons.org/ns#"
   xmlns:rdf="http://www.w3.org/1999/02/22-rdf-syntax-ns#"
   xmlns:svg="http://www.w3.org/2000/svg"
   xmlns="http://www.w3.org/2000/svg"
   xmlns:sodipodi="http://sodipodi.sourceforge.net/DTD/sodipodi-0.dtd"
   xmlns:inkscape="http://www.inkscape.org/namespaces/inkscape"
   style="isolation:isolate"
   viewBox="0 0 36 36"
   width="48"
   height="48"
   version="1.1"
   id="svg29"
   sodipodi:docname="azuredatastudio.svg"
   inkscape:version="0.92.4 (5da689c313, 2019-01-14)">
  <metadata
     id="metadata35">
    <rdf:RDF>
      <cc:Work
         rdf:about="">
        <dc:format>image/svg+xml</dc:format>
        <dc:type
           rdf:resource="http://purl.org/dc/dcmitype/StillImage" />
        <dc:title></dc:title>
      </cc:Work>
    </rdf:RDF>
  </metadata>
  <defs
     id="defs33" />
  <sodipodi:namedview
     pagecolor="#ffffff"
     bordercolor="#666666"
     borderopacity="1"
     objecttolerance="10"
     gridtolerance="10"
     guidetolerance="10"
     inkscape:pageopacity="0"
     inkscape:pageshadow="2"
     inkscape:window-width="640"
     inkscape:window-height="480"
     id="namedview31"
     showgrid="false"
     inkscape:zoom="29.365243"
     inkscape:cx="25.325443"
     inkscape:cy="32"
     inkscape:current-layer="svg29"
     units="px" />
  <linearGradient
     id="_lgradient_10"
     x1="0"
     y1="0.5"
     x2="1"
     y2="0.5"
     gradientTransform="matrix(42.503,0,0,42.495,2.98,0.315)"
     gradientUnits="userSpaceOnUse">
    <stop
       offset="0%"
       stop-opacity="1"
       style="stop-color:rgb(84,51,255)"
       id="stop2" />
    <stop
       offset="51.73913043478261%"
       stop-opacity="1"
       style="stop-color:rgb(32,189,255)"
       id="stop4" />
    <stop
       offset="98.26086956521739%"
       stop-opacity="1"
       style="stop-color:rgb(165,254,203)"
       id="stop6" />
  </linearGradient>
  <linearGradient
     id="_lgradient_11"
     x1="0"
     y1="0.5"
     x2="1.4978136"
     y2="0.50766599"
     gradientTransform="matrix(26.811,0,0,7.35,3.807,18.605)"
     gradientUnits="userSpaceOnUse">
    <stop
       offset="0%"
       stop-opacity="1"
       style="stop-color:rgb(84,51,255)"
       id="stop11" />
    <stop
       offset="51.73913043478261%"
       stop-opacity="1"
       style="stop-color:rgb(32,189,255)"
       id="stop13" />
    <stop
       offset="98.26086956521739%"
       stop-opacity="1"
       style="stop-color:rgb(165,254,203)"
       id="stop15" />
  </linearGradient>
  <linearGradient
     id="_lgradient_12"
     x1="0"
     y1="0.5"
     x2="1.4978136"
     y2="0.50766599"
     gradientTransform="matrix(29.46,0,0,39.211,2.517,8.474)"
     gradientUnits="userSpaceOnUse">
    <stop
       offset="0%"
       stop-opacity="1"
       style="stop-color:rgb(84,51,255)"
       id="stop20" />
    <stop
       offset="51.73913043478261%"
       stop-opacity="1"
       style="stop-color:rgb(32,189,255)"
       id="stop22" />
    <stop
       offset="98.26086956521739%"
       stop-opacity="1"
       style="stop-color:rgb(165,254,203)"
       id="stop24" />
  </linearGradient>
  <g
     id="g845"
     transform="matrix(0.75997467,0,0,0.75997467,-0.23939208,-0.23939208)">
    <path
       id="path9"
       d="M 39.241,6.696 C 39.159,6.692 39.077,6.691 38.996,6.69 38.443,6.748 37.901,6.855 37.37,7.003 36.998,7.11 36.637,7.264 36.302,7.46 36.074,7.588 35.867,7.747 35.675,7.922 35.495,8.087 35.335,8.278 35.208,8.486 35.08,8.688 34.985,8.9 34.916,9.128 34.847,9.357 34.809,9.596 34.799,9.835 v 0 c -0.021,0.586 0.437,1.08 1.022,1.102 v 0 c 0.585,0.022 1.079,-0.434 1.103,-1.017 v 0 c 0,-0.064 0.01,-0.127 0.026,-0.186 0.016,-0.042 0.032,-0.085 0.059,-0.122 0.026,-0.048 0.063,-0.09 0.106,-0.128 0.074,-0.074 0.159,-0.132 0.255,-0.186 0.181,-0.106 0.372,-0.191 0.579,-0.249 0.377,-0.107 0.765,-0.186 1.153,-0.234 0.191,0.003 0.381,0.012 0.571,0.026 l 0.003,0.016 0.075,-0.01 c 0.143,0.011 0.286,0.025 0.429,0.042 0.277,0.038 0.553,0.091 0.829,0.165 0.25,0.064 0.494,0.149 0.728,0.26 0.175,0.08 0.345,0.176 0.499,0.287 0.16,0.117 0.303,0.25 0.431,0.399 0.122,0.148 0.228,0.308 0.308,0.478 0.101,0.196 0.17,0.409 0.217,0.621 0.064,0.303 0.101,0.611 0.107,0.919 0.005,0.319 -0.016,0.643 -0.064,0.957 -0.032,0.218 -0.085,0.435 -0.165,0.643 -0.058,0.159 -0.133,0.313 -0.228,0.462 -0.08,0.122 -0.175,0.239 -0.276,0.34 -0.112,0.111 -0.239,0.207 -0.372,0.287 -0.165,0.1 -0.346,0.18 -0.532,0.244 -0.207,0.074 -0.419,0.127 -0.637,0.159 -0.308,0.048 -0.616,0.075 -0.924,0.08 h -3.709 -4.781 -1.062 -3.708 c -0.324,-0.005 -0.643,-0.032 -0.962,-0.085 -0.223,-0.037 -0.441,-0.096 -0.653,-0.17 -0.176,-0.064 -0.34,-0.143 -0.5,-0.239 -0.127,-0.08 -0.244,-0.17 -0.35,-0.276 -0.112,-0.107 -0.208,-0.229 -0.287,-0.362 -0.101,-0.159 -0.181,-0.329 -0.239,-0.504 -0.075,-0.202 -0.123,-0.409 -0.149,-0.622 -0.043,-0.303 -0.064,-0.605 -0.059,-0.914 0.006,-0.308 0.043,-0.616 0.107,-0.913 0.048,-0.218 0.117,-0.425 0.212,-0.627 0.085,-0.17 0.191,-0.33 0.314,-0.473 0.122,-0.149 0.265,-0.287 0.425,-0.398 0.159,-0.117 0.329,-0.218 0.51,-0.298 0.239,-0.106 0.488,-0.197 0.743,-0.26 0.271,-0.075 0.542,-0.128 0.824,-0.16 0.35,-0.042 0.706,-0.069 1.062,-0.074 0.383,0.048 0.771,0.127 1.143,0.234 0.201,0.053 0.398,0.138 0.584,0.239 0.09,0.058 0.181,0.117 0.26,0.191 0.037,0.037 0.075,0.08 0.106,0.128 0.022,0.042 0.043,0.085 0.054,0.127 0.021,0.059 0.031,0.122 0.031,0.186 v 0 c 0.024,0.583 0.518,1.039 1.103,1.017 v 0 c 0.585,-0.022 1.043,-0.516 1.022,-1.102 v 0 C 32.132,9.596 32.095,9.357 32.026,9.123 31.957,8.895 31.856,8.677 31.728,8.475 31.595,8.268 31.436,8.077 31.255,7.912 31.059,7.731 30.846,7.577 30.618,7.444 30.283,7.253 29.927,7.104 29.555,7.003 29.029,6.855 28.493,6.748 27.946,6.69 c -0.077,10e-4 -0.153,0.002 -0.23,0.006 0.342,-1.069 0.973,-2.025 1.823,-2.769 1.089,-0.956 2.492,-1.482 3.937,-1.487 0.005,0 0.005,0 0.005,0 v 0 0 c 0,0 0,0 0,0 h -0.005 c 1.477,0.005 2.901,0.553 3.995,1.535 0.824,0.741 1.437,1.678 1.77,2.721 z m -3.857,21.9 c 0.772,0 1.513,0.306 2.059,0.853 0.546,0.546 0.853,1.286 0.853,2.059 0,0.772 -0.307,1.513 -0.853,2.059 -0.546,0.546 -1.287,0.853 -2.059,0.853 -0.772,0 -1.513,-0.307 -2.059,-0.853 -0.546,-0.546 -0.853,-1.287 -0.853,-2.059 0,-0.773 0.307,-1.513 0.853,-2.059 0.546,-0.547 1.287,-0.853 2.059,-0.853 z M 41.537,6.994 c 0.006,0.001 0.013,0.002 0.019,0.004 0.361,0.096 0.717,0.223 1.063,0.377 0.303,0.144 0.595,0.308 0.866,0.505 0.297,0.218 0.568,0.468 0.807,0.749 0.234,0.282 0.436,0.584 0.595,0.914 0.17,0.356 0.303,0.728 0.383,1.11 0.095,0.436 0.148,0.882 0.154,1.334 0.005,0.435 -0.022,0.871 -0.085,1.301 -0.053,0.361 -0.144,0.723 -0.277,1.068 -0.111,0.303 -0.255,0.59 -0.43,0.866 -0.165,0.26 -0.361,0.505 -0.584,0.722 -0.229,0.224 -0.484,0.42 -0.76,0.585 -0.297,0.175 -0.611,0.324 -0.935,0.435 -0.324,0.112 -0.664,0.192 -1.004,0.245 -0.404,0.063 -0.813,0.101 -1.222,0.106 -0.005,0 -0.01,0 -0.016,0 H 36.392 35.33 30.549 26.83 c -0.005,0 -0.011,0 -0.016,0 -0.425,-0.005 -0.855,-0.043 -1.275,-0.112 -0.356,-0.058 -0.701,-0.148 -1.041,-0.271 -0.303,-0.111 -0.601,-0.255 -0.877,-0.425 -0.265,-0.159 -0.51,-0.35 -0.728,-0.563 -0.233,-0.233 -0.441,-0.488 -0.616,-0.765 -0.18,-0.292 -0.324,-0.605 -0.435,-0.929 -0.117,-0.335 -0.202,-0.675 -0.25,-1.026 -0.053,-0.409 -0.08,-0.823 -0.075,-1.237 0.006,-0.447 0.059,-0.893 0.155,-1.334 0.079,-0.382 0.212,-0.754 0.382,-1.105 0.159,-0.329 0.361,-0.637 0.595,-0.914 0.234,-0.281 0.505,-0.531 0.802,-0.749 0.276,-0.196 0.569,-0.372 0.882,-0.51 0.345,-0.159 0.707,-0.287 1.079,-0.382 0.004,-0.001 0.008,-0.002 0.012,-0.003 0.37,-1.804 1.325,-3.445 2.718,-4.662 1.477,-1.296 3.374,-2.008 5.334,-2.013 0,0 0,0 0.005,0 v 0 0 c 1.998,0.005 3.921,0.744 5.408,2.077 1.354,1.213 2.282,2.829 2.648,4.602 z M 31.301,38.371 c 0.41,0.264 0.851,0.473 1.309,0.64 l 0.223,2.691 h 5.096 l 0.225,-2.684 c 0.851,-0.316 1.643,-0.774 2.341,-1.354 l 2.44,1.149 2.548,-4.414 -2.215,-1.539 c 0.078,-0.446 0.119,-0.898 0.122,-1.351 0,-0.454 -0.039,-0.908 -0.117,-1.356 l 2.21,-1.533 -2.548,-4.414 -2.434,1.146 C 39.8,24.775 39.007,24.321 38.155,24.01 L 37.93,21.32 H 32.833 L 32.836,21.315 32.611,24 c -0.483,0.179 -0.947,0.403 -1.376,0.685 z M 4.48,36.5 h -1.5 v -3 h 1.5 2.76 l 5.2,-6.98 3.68,9.84 1.96,-3.86 h 8.7 1.5 v 3 h -1.5 -6.86 L 15.71,42.81 11.56,32.72 8.75,36.5 Z"
       inkscape:connector-curvature="0"
       style="fill:url(#_lgradient_10);fill-rule:evenodd" />
    <path
       id="path18"
       d="m 27.977,19.555 2.572,0.56 0.069,2.15 -0.481,0.86 c -3.93,1.86 -8.24,2.83 -12.59,2.83 -2.11,0 -4.2,-0.24 -6.25,-0.71 -2,-0.47 -3.93,-1.2 -5.73,-2.17 l -1.76,-0.95 1.9,-3.52 1.76,0.95 c 1.49,0.81 3.08,1.41 4.73,1.79 1.75,0.41 3.55,0.61 5.35,0.61 3.76,0 7.03,-0.78 10.43,-2.4 z"
       inkscape:connector-curvature="0"
       style="fill:url(#_lgradient_11)" />
    <path
       id="path27"
       d="m 6.517,41.085 c 3.34,1.69 7.03,2.58 10.78,2.6 3.71,-0.02 7.37,-0.9 10.68,-2.59 v -19.78 -1.76 0 c 2.207,0 4,0.789 4,1.76 v 0 20 c 0,1.36 -0.76,2.61 -1.96,3.23 -3.93,2.05 -8.3,3.12 -12.73,3.14 -4.46,-0.02 -8.85,-1.1 -12.81,-3.15 -0.58,-0.31 -1.07,-0.77 -1.4,-1.33 -0.35,-0.55 -0.54,-1.19 -0.56,-1.84 0,-0.01 0,-0.03 0,-0.05 v -21.2 c 0,-0.86 0.13,-1.72 0.4,-2.55 0.41,-1.33 1.04,-2.59 1.88,-3.72 0.78,-1.03 1.75,-1.92 2.85,-2.62 1.09,-0.69 2.26,-1.24 3.49,-1.64 1.3,-0.43 2.63,-0.79 3.98,-1.07 v 0 c 1.082,-0.221 2.139,0.478 2.36,1.56 v 0 c 0.221,1.082 -0.478,2.139 -1.56,2.36 v 0 c -1.19,0.25 -2.37,0.56 -3.53,0.95 -0.91,0.3 -1.79,0.71 -2.6,1.22 -0.69,0.44 -1.3,1 -1.79,1.64 -0.56,0.77 -0.99,1.62 -1.27,2.52 -0.14,0.44 -0.21,0.89 -0.21,1.35 z"
       inkscape:connector-curvature="0"
       style="fill:url(#_lgradient_12);fill-rule:evenodd" />
  </g>
</svg>

<?xml version="1.0" encoding="UTF-8" standalone="no"?><!-- Generator: Gravit.io --><svg xmlns="http://www.w3.org/2000/svg" xmlns:xlink="http://www.w3.org/1999/xlink" style="isolation:isolate" viewBox="0 0 48 48" width="48pt" height="48pt"><linearGradient id="_lgradient_10" x1="0" y1="0.5" x2="1" y2="0.5" gradientTransform="matrix(42.503,0,0,42.495,2.98,0.315)" gradientUnits="userSpaceOnUse"><stop offset="0%" stop-opacity="1" style="stop-color:rgb(84,51,255)"/><stop offset="51.73913043478261%" stop-opacity="1" style="stop-color:rgb(32,189,255)"/><stop offset="98.26086956521739%" stop-opacity="1" style="stop-color:rgb(165,254,203)"/></linearGradient><path d=" M 39.241 6.696 C 39.159 6.692 39.077 6.691 38.996 6.69 C 38.443 6.748 37.901 6.855 37.37 7.003 C 36.998 7.11 36.637 7.264 36.302 7.46 C 36.074 7.588 35.867 7.747 35.675 7.922 C 35.495 8.087 35.335 8.278 35.208 8.486 C 35.08 8.688 34.985 8.9 34.916 9.128 C 34.847 9.357 34.809 9.596 34.799 9.835 L 34.799 9.835 C 34.778 10.421 35.236 10.915 35.821 10.937 L 35.821 10.937 C 36.406 10.959 36.9 10.503 36.924 9.92 L 36.924 9.92 C 36.924 9.856 36.934 9.793 36.95 9.734 C 36.966 9.692 36.982 9.649 37.009 9.612 C 37.035 9.564 37.072 9.522 37.115 9.484 C 37.189 9.41 37.274 9.352 37.37 9.298 C 37.551 9.192 37.742 9.107 37.949 9.049 C 38.326 8.942 38.714 8.863 39.102 8.815 C 39.293 8.818 39.483 8.827 39.673 8.841 L 39.676 8.857 L 39.751 8.847 C 39.894 8.858 40.037 8.872 40.18 8.889 C 40.457 8.927 40.733 8.98 41.009 9.054 C 41.259 9.118 41.503 9.203 41.737 9.314 C 41.912 9.394 42.082 9.49 42.236 9.601 C 42.396 9.718 42.539 9.851 42.667 10 C 42.789 10.148 42.895 10.308 42.975 10.478 C 43.076 10.674 43.145 10.887 43.192 11.099 C 43.256 11.402 43.293 11.71 43.299 12.018 C 43.304 12.337 43.283 12.661 43.235 12.975 C 43.203 13.193 43.15 13.41 43.07 13.618 C 43.012 13.777 42.937 13.931 42.842 14.08 C 42.762 14.202 42.667 14.319 42.566 14.42 C 42.454 14.531 42.327 14.627 42.194 14.707 C 42.029 14.807 41.848 14.887 41.662 14.951 C 41.455 15.025 41.243 15.078 41.025 15.11 C 40.717 15.158 40.409 15.185 40.101 15.19 L 36.392 15.19 L 31.611 15.19 L 30.549 15.19 L 26.841 15.19 C 26.517 15.185 26.198 15.158 25.879 15.105 C 25.656 15.068 25.438 15.009 25.226 14.935 C 25.05 14.871 24.886 14.792 24.726 14.696 C 24.599 14.616 24.482 14.526 24.376 14.42 C 24.264 14.313 24.168 14.191 24.089 14.058 C 23.988 13.899 23.908 13.729 23.85 13.554 C 23.775 13.352 23.727 13.145 23.701 12.932 C 23.658 12.629 23.637 12.327 23.642 12.018 C 23.648 11.71 23.685 11.402 23.749 11.105 C 23.797 10.887 23.866 10.68 23.961 10.478 C 24.046 10.308 24.152 10.148 24.275 10.005 C 24.397 9.856 24.54 9.718 24.7 9.607 C 24.859 9.49 25.029 9.389 25.21 9.309 C 25.449 9.203 25.698 9.112 25.953 9.049 C 26.224 8.974 26.495 8.921 26.777 8.889 C 27.127 8.847 27.483 8.82 27.839 8.815 C 28.222 8.863 28.61 8.942 28.982 9.049 C 29.183 9.102 29.38 9.187 29.566 9.288 C 29.656 9.346 29.747 9.405 29.826 9.479 C 29.863 9.516 29.901 9.559 29.932 9.607 C 29.954 9.649 29.975 9.692 29.986 9.734 C 30.007 9.793 30.017 9.856 30.017 9.92 L 30.017 9.92 C 30.041 10.503 30.535 10.959 31.12 10.937 L 31.12 10.937 C 31.705 10.915 32.163 10.421 32.142 9.835 L 32.142 9.835 C 32.132 9.596 32.095 9.357 32.026 9.123 C 31.957 8.895 31.856 8.677 31.728 8.475 C 31.595 8.268 31.436 8.077 31.255 7.912 C 31.059 7.731 30.846 7.577 30.618 7.444 C 30.283 7.253 29.927 7.104 29.555 7.003 C 29.029 6.855 28.493 6.748 27.946 6.69 C 27.869 6.691 27.793 6.692 27.716 6.696 C 28.058 5.627 28.689 4.671 29.539 3.927 C 30.628 2.971 32.031 2.445 33.476 2.44 C 33.481 2.44 33.481 2.44 33.481 2.44 L 33.481 2.44 L 33.481 2.44 C 33.481 2.44 33.481 2.44 33.481 2.44 L 33.476 2.44 C 34.953 2.445 36.377 2.993 37.471 3.975 C 38.295 4.716 38.908 5.653 39.241 6.696 L 39.241 6.696 L 39.241 6.696 Z  M 35.384 28.596 C 36.156 28.596 36.897 28.902 37.443 29.449 C 37.989 29.995 38.296 30.735 38.296 31.508 C 38.296 32.28 37.989 33.021 37.443 33.567 C 36.897 34.113 36.156 34.42 35.384 34.42 C 34.612 34.42 33.871 34.113 33.325 33.567 C 32.779 33.021 32.472 32.28 32.472 31.508 C 32.472 30.735 32.779 29.995 33.325 29.449 C 33.871 28.902 34.612 28.596 35.384 28.596 L 35.384 28.596 L 35.384 28.596 Z  M 41.537 6.994 C 41.543 6.995 41.55 6.996 41.556 6.998 C 41.917 7.094 42.273 7.221 42.619 7.375 C 42.922 7.519 43.214 7.683 43.485 7.88 C 43.782 8.098 44.053 8.348 44.292 8.629 C 44.526 8.911 44.728 9.213 44.887 9.543 C 45.057 9.899 45.19 10.271 45.27 10.653 C 45.365 11.089 45.418 11.535 45.424 11.987 C 45.429 12.422 45.402 12.858 45.339 13.288 C 45.286 13.649 45.195 14.011 45.062 14.356 C 44.951 14.659 44.807 14.946 44.632 15.222 C 44.467 15.482 44.271 15.727 44.048 15.944 C 43.819 16.168 43.564 16.364 43.288 16.529 C 42.991 16.704 42.677 16.853 42.353 16.964 C 42.029 17.076 41.689 17.156 41.349 17.209 C 40.945 17.272 40.536 17.31 40.127 17.315 C 40.122 17.315 40.117 17.315 40.111 17.315 L 36.392 17.315 L 35.33 17.315 L 30.549 17.315 L 26.83 17.315 C 26.825 17.315 26.819 17.315 26.814 17.315 C 26.389 17.31 25.959 17.272 25.539 17.203 C 25.183 17.145 24.838 17.055 24.498 16.932 C 24.195 16.821 23.897 16.677 23.621 16.507 C 23.356 16.348 23.111 16.157 22.893 15.944 C 22.66 15.711 22.452 15.456 22.277 15.179 C 22.097 14.887 21.953 14.574 21.842 14.25 C 21.725 13.915 21.64 13.575 21.592 13.224 C 21.539 12.815 21.512 12.401 21.517 11.987 C 21.523 11.54 21.576 11.094 21.672 10.653 C 21.751 10.271 21.884 9.899 22.054 9.548 C 22.213 9.219 22.415 8.911 22.649 8.634 C 22.883 8.353 23.154 8.103 23.451 7.885 C 23.727 7.689 24.02 7.513 24.333 7.375 C 24.678 7.216 25.04 7.088 25.412 6.993 C 25.416 6.992 25.42 6.991 25.424 6.99 C 25.794 5.186 26.749 3.545 28.142 2.328 C 29.619 1.032 31.516 0.32 33.476 0.315 C 33.476 0.315 33.476 0.315 33.481 0.315 L 33.481 0.315 L 33.481 0.315 C 35.479 0.32 37.402 1.059 38.889 2.392 C 40.243 3.605 41.171 5.221 41.537 6.994 L 41.537 6.994 L 41.537 6.994 Z  M 31.301 38.371 C 31.711 38.635 32.152 38.844 32.61 39.011 L 32.833 41.702 L 37.929 41.702 L 38.154 39.018 C 39.005 38.702 39.797 38.244 40.495 37.664 L 42.935 38.813 L 45.483 34.399 L 43.268 32.86 C 43.346 32.414 43.387 31.962 43.39 31.509 C 43.39 31.055 43.351 30.601 43.273 30.153 L 45.483 28.62 L 42.935 24.206 L 40.501 25.352 C 39.8 24.775 39.007 24.321 38.155 24.01 L 37.93 21.32 L 32.833 21.32 L 32.836 21.315 L 32.611 24 C 32.128 24.179 31.664 24.403 31.235 24.685 L 31.301 38.371 L 31.301 38.371 L 31.301 38.371 L 31.301 38.371 Z  M 4.48 36.5 L 2.98 36.5 L 2.98 33.5 L 4.48 33.5 L 7.24 33.5 L 12.44 26.52 L 16.12 36.36 L 18.08 32.5 L 26.78 32.5 L 28.28 32.5 L 28.28 35.5 L 26.78 35.5 L 19.92 35.5 L 15.71 42.81 L 11.56 32.72 L 8.75 36.5 L 4.48 36.5 Z " fill-rule="evenodd" fill="url(#_lgradient_10)"/><linearGradient id="_lgradient_11" x1="0" y1="0.5" x2="1.4978136080687283" y2="0.5076659814647589" gradientTransform="matrix(26.811,0,0,7.35,3.807,18.605)" gradientUnits="userSpaceOnUse"><stop offset="0%" stop-opacity="1" style="stop-color:rgb(84,51,255)"/><stop offset="51.73913043478261%" stop-opacity="1" style="stop-color:rgb(32,189,255)"/><stop offset="98.26086956521739%" stop-opacity="1" style="stop-color:rgb(165,254,203)"/></linearGradient><path d=" M 27.977 19.555 L 30.549 20.115 L 30.618 22.265 L 30.137 23.125 C 26.207 24.985 21.897 25.955 17.547 25.955 C 15.437 25.955 13.347 25.715 11.297 25.245 C 9.297 24.775 7.367 24.045 5.567 23.075 L 3.807 22.125 L 5.707 18.605 L 7.467 19.555 C 8.957 20.365 10.547 20.965 12.197 21.345 C 13.947 21.755 15.747 21.955 17.547 21.955 C 21.307 21.955 24.577 21.175 27.977 19.555 Z " fill="url(#_lgradient_11)"/><linearGradient id="_lgradient_12" x1="0" y1="0.5" x2="1.4978136080687283" y2="0.5076659814647589" gradientTransform="matrix(29.46,0,0,39.211,2.517,8.474)" gradientUnits="userSpaceOnUse"><stop offset="0%" stop-opacity="1" style="stop-color:rgb(84,51,255)"/><stop offset="51.73913043478261%" stop-opacity="1" style="stop-color:rgb(32,189,255)"/><stop offset="98.26086956521739%" stop-opacity="1" style="stop-color:rgb(165,254,203)"/></linearGradient><path d=" M 6.517 41.085 C 9.857 42.775 13.547 43.665 17.297 43.685 C 21.007 43.665 24.667 42.785 27.977 41.095 L 27.977 21.315 L 27.977 19.555 L 27.977 19.555 C 30.184 19.555 31.977 20.344 31.977 21.315 L 31.977 21.315 L 31.977 41.315 C 31.977 42.675 31.217 43.925 30.017 44.545 C 26.087 46.595 21.717 47.665 17.287 47.685 C 12.827 47.665 8.437 46.585 4.477 44.535 C 3.897 44.225 3.407 43.765 3.077 43.205 C 2.727 42.655 2.537 42.015 2.517 41.365 C 2.517 41.355 2.517 41.335 2.517 41.315 L 2.517 20.115 C 2.517 19.255 2.647 18.395 2.917 17.565 C 3.327 16.235 3.957 14.975 4.797 13.845 C 5.577 12.815 6.547 11.925 7.647 11.225 C 8.737 10.535 9.907 9.985 11.137 9.585 C 12.437 9.155 13.767 8.795 15.117 8.515 L 15.117 8.515 C 16.199 8.294 17.256 8.993 17.477 10.075 L 17.477 10.075 C 17.698 11.157 16.999 12.214 15.917 12.435 L 15.917 12.435 C 14.727 12.685 13.547 12.995 12.387 13.385 C 11.477 13.685 10.597 14.095 9.787 14.605 C 9.097 15.045 8.487 15.605 7.997 16.245 C 7.437 17.015 7.007 17.865 6.727 18.765 C 6.587 19.205 6.517 19.655 6.517 20.115 L 6.517 41.085 Z " fill-rule="evenodd" fill="url(#_lgradient_12)"/></svg>
